flaticon/constructions/tools-1.svg

<svg xmlns="http://www.w3.org/2000/svg" width="32" height="32" viewBox="0 0 24 24">
    <path d="M 22.601562 18.117188 C 22.074219 17.742188 21.460938 17.554688 20.84375 17.542969 C 18.691406 16.132812 17.28125 15.070312 16.453125 14.242188 L 14.527344 12.316406 C 14.730469 12.25 14.910156 12.207031 15.015625 12.207031 C 15.214844 12.207031 15.332031 12.125 15.414062 11.96875 L 23.519531 3.898438 C 24.160156 3.261719 24.160156 2.222656 23.519531 1.582031 L 22.441406 0.503906 C 21.804688 -0.132812 20.765625 -0.132812 20.125 0.503906 L 11.898438 8.691406 C 11.78125 8.8125 11.75 8.976562 11.808594 9.117188 C 11.796875 9.207031 11.765625 9.316406 11.726562 9.4375 L 9.742188 7.453125 C 8.269531 5.980469 7.234375 4.585938 6.433594 3.03125 C 6.394531 2.246094 6.078125 1.511719 5.511719 0.945312 C 4.832031 0.265625 3.875 -0.0546875 2.914062 0.0273438 C 2.796875 0.0664062 2.675781 0.144531 2.636719 0.226562 C 2.554688 0.34375 2.554688 0.503906 2.636719 0.625 L 3.753906 2.621094 C 3.515625 3.140625 2.953125 3.460938 2.394531 3.421875 L 1.238281 1.503906 C 1.199219 1.382812 1.039062 1.304688 0.917969 1.304688 C 0.796875 1.265625 0.679688 1.34375 0.597656 1.464844 C -0.359375 2.902344 0 4.816406 1.4375 5.816406 C 1.933594 6.171875 2.492188 6.367188 3.054688 6.40625 C 3.0625 6.410156 3.066406 6.414062 3.074219 6.414062 C 4.632812 7.214844 6.03125 8.253906 7.46875 9.691406 L 9.183594 11.40625 L 8.546875 12.046875 C 8.386719 12.207031 8.386719 12.445312 8.546875 12.605469 L 9.125 13.183594 L 2.15625 20.152344 L 0.398438 21.351562 C 0.320312 21.429688 0.238281 21.511719 0.238281 21.628906 L 0 23.546875 C 0 23.667969 0.0390625 23.785156 0.121094 23.867188 C 0.199219 23.945312 0.28125 23.984375 0.398438 23.984375 C 0.4375 23.984375 0.4375 23.984375 0.4375 23.984375 L 2.355469 23.746094 C 2.476562 23.746094 2.554688 23.667969 2.636719 23.585938 L 3.773438 21.917969 C 3.796875 21.902344 3.816406 21.886719 3.832031 21.871094 L 10.804688 14.863281 L 11.382812 15.441406 C 11.460938 15.519531 11.539062 15.558594 11.660156 15.558594 C 11.78125 15.558594 11.898438 15.480469 11.980469 15.441406 L 12.585938 14.808594 L 14.257812 16.480469 C 15.09375 17.316406 16.171875 18.792969 17.605469 20.945312 C 17.65625 21.714844 17.972656 22.429688 18.527344 22.988281 C 19.128906 23.585938 19.925781 23.90625 20.765625 23.90625 C 20.886719 23.90625 21.003906 23.90625 21.085938 23.90625 C 21.203125 23.90625 21.324219 23.828125 21.40625 23.707031 C 21.484375 23.585938 21.484375 23.425781 21.40625 23.308594 L 20.246094 21.351562 C 20.527344 20.832031 21.046875 20.511719 21.644531 20.550781 L 22.761719 22.46875 C 22.800781 22.589844 22.960938 22.667969 23.082031 22.667969 C 23.242188 22.628906 23.359375 22.589844 23.441406 22.46875 C 24.398438 21.03125 24 19.113281 22.601562 18.117188 Z M 13.617188 11.765625 C 13.335938 11.886719 12.976562 12.085938 12.738281 12.324219 C 12.546875 12.519531 12.4375 12.777344 12.378906 13.042969 L 10.902344 11.566406 C 11.179688 11.527344 11.460938 11.40625 11.660156 11.207031 C 11.941406 10.96875 12.21875 10.367188 12.417969 9.808594 L 14.175781 11.566406 C 14.042969 11.613281 13.910156 11.667969 13.78125 11.726562 C 13.726562 11.726562 13.671875 11.738281 13.617188 11.765625 Z M 20.6875 1.0625 C 21.003906 0.746094 21.523438 0.746094 21.84375 1.0625 L 22.921875 2.140625 C 23.242188 2.460938 23.242188 2.980469 22.921875 3.300781 L 14.996094 11.1875 L 12.757812 8.949219 Z M 0.957031 2.542969 L 1.796875 3.980469 C 1.875 4.097656 1.996094 4.179688 2.117188 4.179688 L 2.316406 4.179688 C 3.234375 4.21875 4.074219 3.738281 4.472656 2.941406 L 4.550781 2.742188 C 4.632812 2.621094 4.632812 2.5 4.550781 2.382812 L 3.675781 0.863281 C 4.152344 0.945312 4.59375 1.183594 4.953125 1.542969 C 5.363281 1.988281 5.628906 2.554688 5.644531 3.160156 C 5.636719 3.191406 5.628906 3.222656 5.628906 3.261719 C 5.628906 3.445312 5.609375 3.625 5.566406 3.800781 C 5.417969 4.378906 5.054688 4.882812 4.550781 5.21875 C 3.753906 5.738281 2.675781 5.738281 1.875 5.175781 C 1.039062 4.578125 0.679688 3.5 0.957031 2.542969 Z M 4.394531 6.214844 C 4.59375 6.136719 4.832031 6.015625 5.03125 5.894531 C 5.628906 5.496094 6.03125 4.976562 6.269531 4.339844 C 7.027344 5.617188 7.988281 6.816406 9.183594 8.011719 L 11.398438 10.226562 C 11.3125 10.390625 11.222656 10.527344 11.140625 10.609375 C 10.902344 10.808594 10.304688 10.769531 10.023438 10.769531 C 9.925781 10.769531 9.832031 10.796875 9.75 10.855469 L 8.066406 9.171875 C 6.828125 7.933594 5.671875 6.972656 4.394531 6.214844 Z M 2.117188 22.949219 L 0.839844 23.109375 L 1 21.871094 L 2.332031 20.96875 L 3.019531 21.652344 Z M 3.515625 21.03125 L 2.953125 20.472656 L 9.703125 13.761719 L 10.261719 14.320312 Z M 11.660156 14.5625 L 9.425781 12.324219 L 9.984375 11.765625 L 12.207031 13.988281 C 12.191406 14.007812 12.179688 14.027344 12.171875 14.050781 Z M 13.171875 14.273438 C 13.226562 14.195312 13.257812 14.097656 13.257812 14.003906 C 13.242188 13.882812 13.226562 13.730469 13.226562 13.570312 C 13.226562 13.308594 13.269531 13.035156 13.417969 12.882812 C 13.46875 12.824219 13.558594 12.757812 13.671875 12.691406 C 13.671875 12.6875 13.675781 12.6875 13.675781 12.6875 C 13.71875 12.660156 13.769531 12.632812 13.820312 12.609375 L 16.011719 14.800781 C 16.730469 15.558594 17.964844 16.515625 19.757812 17.710938 C 19.496094 17.796875 19.242188 17.917969 19.007812 18.074219 C 18.421875 18.488281 17.984375 19.050781 17.761719 19.703125 C 17.53125 19.363281 17.3125 19.046875 17.097656 18.746094 L 17.652344 18.195312 C 17.808594 18.035156 17.808594 17.796875 17.652344 17.636719 C 17.492188 17.476562 17.25 17.476562 17.089844 17.636719 L 16.628906 18.097656 C 16.464844 17.875 16.304688 17.660156 16.148438 17.460938 L 16.53125 17.078125 C 16.691406 16.917969 16.691406 16.679688 16.53125 16.519531 C 16.371094 16.359375 16.132812 16.359375 15.972656 16.519531 L 15.648438 16.839844 C 15.363281 16.496094 15.097656 16.203125 14.855469 15.960938 Z M 23.042969 21.390625 L 22.203125 19.953125 C 22.125 19.832031 22.003906 19.753906 21.882812 19.753906 L 21.683594 19.753906 C 20.765625 19.671875 19.925781 20.191406 19.527344 20.992188 L 19.449219 21.191406 C 19.367188 21.308594 19.367188 21.429688 19.449219 21.550781 L 20.324219 23.066406 C 19.847656 22.988281 19.40625 22.75 19.046875 22.390625 C 18.644531 21.949219 18.382812 21.398438 18.359375 20.808594 C 18.367188 20.777344 18.371094 20.746094 18.371094 20.710938 C 18.371094 20.261719 18.496094 19.839844 18.710938 19.476562 C 18.710938 19.476562 18.710938 19.476562 18.714844 19.476562 C 18.714844 19.472656 18.714844 19.472656 18.714844 19.46875 C 18.902344 19.171875 19.148438 18.914062 19.449219 18.714844 C 19.496094 18.679688 19.542969 18.652344 19.59375 18.621094 C 19.902344 18.457031 20.261719 18.355469 20.644531 18.355469 C 20.714844 18.355469 20.769531 18.34375 20.816406 18.316406 C 21.277344 18.328125 21.738281 18.484375 22.121094 18.753906 C 22.960938 19.355469 23.320312 20.433594 23.042969 21.390625 Z M 23.042969 21.390625"/>
    <path d="M 14.496094 9.488281 C 14.574219 9.570312 14.65625 9.609375 14.773438 9.609375 C 14.894531 9.609375 14.976562 9.570312 15.054688 9.488281 L 21.84375 2.703125 C 22.003906 2.542969 22.003906 2.300781 21.84375 2.140625 C 21.683594 1.984375 21.445312 1.984375 21.285156 2.140625 L 14.496094 8.929688 C 14.335938 9.089844 14.335938 9.332031 14.496094 9.488281 Z M 14.496094 9.488281"/>
</svg>

<svg xmlns="http://www.w3.org/2000/svg" width="32" height="32" viewBox="0 0 24 24">
    <path d="M22.602 18.117a3.124 3.124 0 0 0-1.758-.574c-2.153-1.41-3.563-2.473-4.39-3.3l-1.927-1.927c.203-.066.383-.109.489-.109.199 0 .316-.082.398-.238l8.106-8.07c.64-.637.64-1.676 0-2.317L22.44.504a1.643 1.643 0 0 0-2.316 0L11.898 8.69a.391.391 0 0 0-.09.426c-.011.09-.042.2-.081.32L9.742 7.454C8.27 5.98 7.234 4.586 6.434 3.031A3.144 3.144 0 0 0 5.512.945c-.68-.68-1.637-1-2.598-.918-.117.04-.238.118-.277.2a.353.353 0 0 0 0 .398l1.117 1.996c-.238.52-.8.84-1.36.8L1.239 1.505c-.039-.121-.199-.2-.32-.2-.121-.038-.238.04-.32.16a3.146 3.146 0 0 0 .84 4.352c.496.356 1.054.551 1.617.59.007.004.011.008.02.008 1.558.8 2.956 1.84 4.394 3.277l1.715 1.715-.637.64a.385.385 0 0 0 0 .56l.578.578-6.969 6.968-1.758 1.2c-.078.078-.16.16-.16.277L0 23.547c0 .121.04.238.121.32.078.078.16.117.277.117h.04l1.917-.238c.122 0 .2-.078.282-.16l1.136-1.668a.384.384 0 0 0 .059-.047l6.973-7.008.578.578a.357.357 0 0 0 .277.118c.121 0 .238-.079.32-.118l.606-.632 1.672 1.671c.836.836 1.914 2.313 3.347 4.465a3.153 3.153 0 0 0 3.16 2.96l.32.001c.118 0 .24-.078.321-.199a.368.368 0 0 0 0-.398l-1.16-1.957c.281-.52.8-.84 1.399-.801l1.117 1.918c.039.12.199.199.32.199.16-.04.277-.078.36-.2.956-1.437.558-3.355-.84-4.35zm-8.985-6.351c-.281.12-.64.32-.879.558-.191.196-.3.453-.36.719l-1.476-1.477c.278-.039.559-.16.758-.359.281-.238.559-.84.758-1.398l1.758 1.757a4.905 4.905 0 0 0-.395.16.361.361 0 0 0-.164.04zm7.07-10.704a.823.823 0 0 1 1.157 0l1.078 1.079c.32.32.32.84 0 1.16l-7.926 7.886-2.238-2.238zM.957 2.543l.84 1.437c.078.118.2.2.32.2h.2c.917.039 1.757-.442 2.156-1.239l.078-.199c.082-.12.082-.242 0-.36L3.676.864c.476.082.918.32 1.277.68.41.445.676 1.012.692 1.617-.008.031-.016.063-.016.102 0 .183-.02.363-.063.539a2.439 2.439 0 0 1-1.015 1.418 2.41 2.41 0 0 1-2.676-.043 2.435 2.435 0 0 1-.918-2.633zm3.438 3.672c.199-.078.437-.2.636-.32.598-.399 1-.918 1.239-1.555.757 1.277 1.718 2.476 2.914 3.672l2.214 2.215c-.085.164-.175.3-.257.382-.239.2-.836.16-1.118.16a.463.463 0 0 0-.273.086L8.066 9.172c-1.238-1.238-2.394-2.2-3.671-2.957zM2.117 22.949l-1.277.16.16-1.238 1.332-.902.688.683zm1.399-1.918l-.563-.558 6.75-6.711.559.558zm8.144-6.468l-2.234-2.239.558-.558 2.223 2.222a.198.198 0 0 0-.035.063zm1.512-.29a.48.48 0 0 0 .086-.27 3.414 3.414 0 0 1-.031-.433c0-.261.043-.535.191-.687.05-.059.14-.125.254-.192 0-.004.004-.004.004-.004.043-.027.094-.054.144-.078l2.192 2.192c.718.758 1.953 1.715 3.746 2.91a3.092 3.092 0 0 0-.75.363 3.316 3.316 0 0 0-1.246 1.63c-.23-.34-.45-.657-.664-.958l.554-.55a.391.391 0 0 0 0-.56.39.39 0 0 0-.562 0l-.461.462a26.896 26.896 0 0 0-.48-.637l.382-.383a.385.385 0 0 0 0-.558.385.385 0 0 0-.558 0l-.325.32c-.285-.344-.55-.637-.793-.88zm9.871 7.118l-.84-1.438c-.078-.121-.2-.2-.32-.2h-.2c-.917-.081-1.757.438-2.156 1.24l-.078.198c-.082.118-.082.239 0 .36l.875 1.515a2.35 2.35 0 0 1-1.277-.675c-.402-.442-.664-.993-.688-1.582a.394.394 0 0 0 .012-.098c0-.45.125-.871.34-1.234h.004v-.008c.187-.297.433-.555.734-.754.047-.035.094-.063.145-.094a2.241 2.241 0 0 1 1.05-.266.33.33 0 0 0 .172-.039c.461.012.922.168 1.305.438.84.601 1.2 1.68.922 2.637zm0 0"/>
    <path d="M14.496 9.488c.078.082.16.121.277.121.122 0 .204-.039.282-.12l6.789-6.786a.39.39 0 0 0 0-.562.391.391 0 0 0-.559 0L14.496 8.93a.385.385 0 0 0 0 .558zm0 0"/>
</svg>
